svgs/sharp-light/up.svg

<svg xmlns="http://www.w3.org/2000/svg" viewBox="0 0 384 512"><!--! Font Awesome Pro 6.4.2 by @fontawesome - https://fontawesome.com License - https://fontawesome.com/license (Commercial License) Copyright 2023 Fonticons, Inc. --><path d="M144 240v32V448h96V272 240h32 80v-2.7L192 77.2 32 237.2V240h80 32zM0 224L169.4 54.6 192 32l22.6 22.6L384 224v16 32H352 304 272v32V448v32H240 144 112V448 304 272H80 32 0V240 224z"/></svg>

<svg xmlns="http://www.w3.org/2000/svg" viewBox="0 0 384 512"><!--! Font Awesome Pro 6.6.0 by @fontawesome - https://fontawesome.com License - https://fontawesome.com/license (Commercial License) Copyright 2024 Fonticons, Inc. --><path d="M144 240l0 32 0 176 96 0 0-176 0-32 32 0 80 0 0-2.7L192 77.2 32 237.2l0 2.7 80 0 32 0zM0 224L169.4 54.6 192 32l22.6 22.6L384 224l0 16 0 32-32 0-48 0-32 0 0 32 0 144 0 32-32 0-96 0-32 0 0-32 0-144 0-32-32 0-48 0L0 272l0-32 0-16z"/></svg>
